images/footer-logo.svg

<svg width="217" height="25" viewBox="0 0 217 25" fill="none" xmlns="http://www.w3.org/2000/svg">
<path d="M14.0108 0.777027H17.476V24.4257H14.0108V13.5135H3.46522V24.4257H0V0.777027H3.46522V10H14.0108V0.777027Z" fill="white"/>
<path d="M32.3042 24.8649C30.7271 24.8649 29.2443 24.5495 27.856 23.9189C26.4677 23.277 25.246 22.393 24.1909 21.2669C23.1358 20.1408 22.3084 18.8401 21.7086 17.3649C21.1089 15.8784 20.809 14.2905 20.809 12.6014C20.809 10.9122 21.1089 9.32996 21.7086 7.85473C22.3084 6.36824 23.1358 5.06194 24.1909 3.93581C25.246 2.80968 26.4677 1.93131 27.856 1.30068C29.2443 0.658784 30.7271 0.337837 32.3042 0.337837C33.8924 0.337837 35.3807 0.658784 36.769 1.30068C38.1573 1.93131 39.379 2.80968 40.4341 3.93581C41.4892 5.06194 42.3111 6.36824 42.8997 7.85473C43.4995 9.32996 43.7994 10.9122 43.7994 12.6014C43.7994 14.2905 43.4995 15.8784 42.8997 17.3649C42.3111 18.8401 41.4892 20.1408 40.4341 21.2669C39.379 22.393 38.1573 23.277 36.769 23.9189C35.3807 24.5495 33.8924 24.8649 32.3042 24.8649ZM32.3042 21.3513C33.4148 21.3513 34.4533 21.1205 35.4195 20.6588C36.3858 20.1971 37.2354 19.5664 37.9685 18.7669C38.7126 17.9561 39.2901 17.027 39.7011 15.9797C40.1231 14.9212 40.3341 13.795 40.3341 12.6014C40.3341 11.4077 40.1231 10.2815 39.7011 9.22297C39.2901 8.16442 38.7126 7.23536 37.9685 6.43581C37.2354 5.625 36.3858 4.99437 35.4195 4.54392C34.4533 4.08221 33.4148 3.85135 32.3042 3.85135C31.1935 3.85135 30.1551 4.08221 29.1888 4.54392C28.2226 5.00563 27.3674 5.64189 26.6232 6.4527C25.8902 7.25225 25.3127 8.18131 24.8906 9.23986C24.4797 10.2872 24.2742 11.4077 24.2742 12.6014C24.2742 13.8063 24.4797 14.9381 24.8906 15.9966C25.3127 17.0439 25.8902 17.973 26.6232 18.7838C27.3674 19.5833 28.2226 20.214 29.1888 20.6757C30.1551 21.1261 31.1935 21.3513 32.3042 21.3513Z" fill="white"/>
<path d="M56.1174 24.8649C54.2515 24.8649 52.6244 24.4032 51.2361 23.4797C49.8589 22.5563 48.7871 21.3176 48.0208 19.7635C47.2655 18.1982 46.8879 16.464 46.8879 14.5608V0.777027H50.3531V14.5608C50.3531 15.7995 50.5753 16.9369 51.0195 17.973C51.4749 18.9977 52.1302 19.8198 52.9854 20.4392C53.8517 21.0473 54.8957 21.3513 56.1174 21.3513C57.3724 21.3513 58.4275 21.0473 59.2827 20.4392C60.1379 19.8198 60.7821 18.9977 61.2152 17.973C61.6595 16.9369 61.8816 15.7995 61.8816 14.5608V0.777027H65.3468V14.5608C65.3468 15.991 65.1303 17.3311 64.6971 18.5811C64.264 19.8198 63.642 20.9122 62.8312 21.8581C62.0205 22.8041 61.0486 23.5417 59.9158 24.0709C58.7829 24.6002 57.5168 24.8649 56.1174 24.8649Z" fill="white"/>
<path d="M77.6526 24.8649C76.3754 24.8649 75.1481 24.6622 73.9708 24.2568C72.7936 23.8514 71.7662 23.2714 70.8888 22.5169C70.0114 21.7511 69.3839 20.8446 69.0063 19.7973L72.2549 18.5642C72.4437 19.1047 72.8047 19.589 73.3378 20.0169C73.882 20.4336 74.5262 20.7601 75.2703 20.9966C76.0255 21.2331 76.8196 21.3513 77.6526 21.3513C78.5412 21.3513 79.3741 21.205 80.1516 20.9122C80.9401 20.6194 81.5732 20.214 82.0508 19.6959C82.5395 19.1779 82.7838 18.5698 82.7838 17.8716C82.7838 17.1509 82.5284 16.5597 82.0175 16.098C81.5177 15.6363 80.8735 15.2703 80.0849 15C79.3075 14.7297 78.4967 14.527 77.6526 14.3919C76.02 14.1216 74.5539 13.7275 73.2545 13.2095C71.9661 12.6914 70.9443 11.9651 70.1891 11.0304C69.445 10.0957 69.0729 8.8795 69.0729 7.38176C69.0729 5.9741 69.4672 4.74662 70.2557 3.69932C71.0554 2.65203 72.105 1.84122 73.4044 1.26689C74.715 0.681306 76.1311 0.388513 77.6526 0.388513C78.9077 0.388513 80.1183 0.591216 81.2844 0.996622C82.4617 1.39077 83.4946 1.97072 84.3831 2.73649C85.2828 3.49099 85.9269 4.40878 86.3157 5.48986L83.0337 6.68919C82.8449 6.13739 82.4839 5.65878 81.9508 5.25338C81.4177 4.83671 80.7736 4.51014 80.0183 4.27365C79.2742 4.03716 78.4856 3.91892 77.6526 3.91892C76.7641 3.90766 75.9311 4.05405 75.1537 4.35811C74.3873 4.6509 73.7598 5.05631 73.2711 5.57432C72.7824 6.09234 72.5381 6.69482 72.5381 7.38176C72.5381 8.22635 72.7658 8.86824 73.2212 9.30743C73.6765 9.74662 74.2874 10.0732 75.0537 10.2872C75.8312 10.4899 76.6975 10.6757 77.6526 10.8446C79.1853 11.0923 80.6014 11.5034 81.9008 12.0777C83.2114 12.652 84.261 13.4178 85.0495 14.375C85.8492 15.3209 86.249 16.4865 86.249 17.8716C86.249 19.268 85.8492 20.4955 85.0495 21.5541C84.261 22.6013 83.2114 23.4178 81.9008 24.0034C80.6014 24.5777 79.1853 24.8649 77.6526 24.8649Z" fill="white"/>
<path d="M90.099 24.4257V0.777027H104.576V4.29054H93.5642V10H102.427V13.5135H93.5642V20.9122H104.576V24.4257H90.099Z" fill="white"/>
<path d="M116.719 0.743244C124.382 0.743244 129.013 4.83108 129.013 11.8581C129.013 19.7973 123.049 24.1892 116.052 24.1892H106.689V24.1216C107.889 24.0203 108.789 23.0068 108.789 21.7568V3.14189C108.789 1.92568 107.889 0.912162 106.689 0.777027V0.743244H116.719ZM116.385 23.6824C122.216 23.6824 125.948 21.3851 125.948 13.4459C125.948 6.41892 122.983 1.0473 115.386 1.0473H111.487V22.5676C112.687 23.2095 114.353 23.6824 116.385 23.6824Z" fill="white"/>
<path d="M140.28 23.8851C143.512 23.8851 146.444 22.0608 147.91 19.1892L146.744 25L145.645 24.1892H130.085V24.1216C131.251 24.0203 132.184 23.0068 132.184 21.7905V3.14189C132.184 1.92568 131.251 0.912162 130.085 0.777027V0.743244H146.911L147.91 5.74324C146.444 2.83784 143.512 1.01351 140.28 1.01351H134.883V12.3311H140.314C141.913 12.3311 143.346 11.3176 143.945 9.83108H144.012V15.1013H143.945C143.346 13.5811 141.913 12.6014 140.314 12.6014H134.883V23.8851H140.28Z" fill="white"/>
<path d="M167.656 20.9459C168.722 20.0338 169.522 19.0878 169.789 18.4459L169.988 17.973C169.888 18.277 169.855 18.6486 169.055 20.0338C168.689 20.7095 168.223 21.3176 167.723 21.8919C166.656 22.973 164.724 24.223 162.525 24.527C158.593 25.0676 155.028 23.8176 152.762 21.5203C150.497 19.223 149.197 16.0811 149.097 12.9054C148.997 9.05405 150.33 5.77703 152.496 3.75C154.628 1.72297 157.394 0.540542 160.492 0.304054C161.992 0.202704 163.458 0.270271 164.924 0.574325C166.557 0.912162 168.123 1.58784 168.689 1.99324C169.055 2.22973 169.622 2.63514 170.155 3.07432L167.889 5.16892C166.756 3.61486 165.39 2.43243 163.724 1.65541C161.059 0.405406 158.627 0.472973 156.294 1.85811C154.895 2.7027 153.795 4.05405 153.096 5.87838C152.396 7.73649 152.129 9.7973 152.296 12.0946C152.529 15.2027 153.595 17.7027 155.528 19.5946C157.46 21.5203 159.793 22.4662 162.492 22.5C164.657 22.5 166.59 21.7905 167.656 20.9459Z" fill="white"/>
<path d="M183.847 0C190.645 0 196.242 4.69595 196.242 12.3311C196.242 19.9324 190.645 24.6622 183.847 24.6622C177.05 24.6622 171.453 19.9324 171.453 12.3311C171.453 4.69595 177.05 0 183.847 0ZM185.18 24.1216C190.145 24.1216 193.41 20.0676 193.41 14.1892C193.41 7.2973 188.845 0.540542 182.515 0.540542C177.55 0.540542 174.285 4.5946 174.285 10.4054C174.285 17.3311 178.85 24.1216 185.18 24.1216Z" fill="white"/>
<path d="M202.339 14.7297C205.805 18.3784 210.669 20.6419 216.067 20.6419C216.367 20.6419 216.7 20.6419 217 20.6081L213.535 23.8176C208.47 22.7365 204.272 19.2905 202.106 14.6622C202.106 14.6622 202.106 14.6622 202.073 14.6622V21.7905C202.106 23.0068 203.006 24.0203 204.205 24.1216V24.1892H197.275V24.1216C198.441 24.0203 199.374 23.0068 199.374 21.7905V3.10811C199.374 1.89189 198.441 0.912162 197.275 0.777027V0.743244H208.304C213.268 0.743244 217 2.90541 217 7.22973C217 11.9595 213.102 15.6081 207.104 15.4392C204.805 15.3716 203.072 14.9324 202.339 14.7297ZM206.571 1.08108H202.073V14.4595C203.206 14.7297 205.005 15 205.072 15C205.105 15 205.172 15 205.238 15C205.272 15 205.338 15.0338 205.372 15.0338C205.905 15.0676 206.438 15.1013 206.938 15.1351C207.071 15.1351 207.204 15.1351 207.304 15.1351C212.102 15.1351 214.035 12.2973 214.035 8.41216C214.035 4.7973 213.102 1.08108 206.571 1.08108Z" fill="white"/>
</svg>

<svg xmlns="http://www.w3.org/2000/svg" width="217" height="25" fill="none" viewBox="0 0 217 25"><path fill="#fff" d="M14.01.777h3.466v23.649h-3.465V13.514H3.465v10.912H0V.777h3.465V10h10.546zm18.294 24.088a10.6 10.6 0 0 1-4.448-.946 11.7 11.7 0 0 1-3.665-2.652 12.6 12.6 0 0 1-2.482-3.902q-.9-2.23-.9-4.764 0-2.533.9-4.746a12.5 12.5 0 0 1 2.482-3.92 11.5 11.5 0 0 1 3.665-2.634 10.5 10.5 0 0 1 4.448-.963q2.383 0 4.465.963 2.082.946 3.665 2.635A12.3 12.3 0 0 1 42.9 7.855q.9 2.213.9 4.746t-.9 4.764a12.3 12.3 0 0 1-2.466 3.902 11.7 11.7 0 0 1-3.665 2.652q-2.083.945-4.465.946m0-3.514q1.666 0 3.115-.692a8.3 8.3 0 0 0 2.55-1.892A8.9 8.9 0 0 0 39.7 15.98a9 9 0 0 0 .633-3.379q0-1.79-.633-3.378a8.6 8.6 0 0 0-1.733-2.787 7.9 7.9 0 0 0-2.549-1.892 7.1 7.1 0 0 0-3.115-.693q-1.666 0-3.115.693a8.3 8.3 0 0 0-2.566 1.909A9 9 0 0 0 24.89 9.24a9.1 9.1 0 0 0-.617 3.361 9.3 9.3 0 0 0 .617 3.396 9.3 9.3 0 0 0 1.732 2.787q1.117 1.2 2.566 1.892 1.45.675 3.115.675m23.814 3.514q-2.799 0-4.88-1.385-2.067-1.386-3.216-3.716-1.133-2.349-1.133-5.203V.777h3.465v13.784q0 1.858.666 3.412.684 1.538 1.966 2.466 1.3.912 3.132.912 1.882 0 3.166-.912 1.283-.93 1.932-2.466.666-1.554.667-3.412V.777h3.465v13.784q0 2.145-.65 4.02a10.1 10.1 0 0 1-1.866 3.277 8.6 8.6 0 0 1-2.915 2.213q-1.7.794-3.799.794m21.536 0q-1.917 0-3.682-.608-1.766-.609-3.082-1.74-1.317-1.148-1.883-2.72l3.249-1.233q.283.81 1.083 1.453.816.625 1.932.98 1.133.354 2.383.354 1.332 0 2.499-.439 1.182-.44 1.899-1.216a2.57 2.57 0 0 0 .733-1.824q0-1.081-.767-1.774-.75-.693-1.932-1.098a14 14 0 0 0-2.432-.608q-2.45-.406-4.399-1.182-1.932-.778-3.065-2.18-1.116-1.401-1.116-3.648 0-2.111 1.183-3.683 1.2-1.57 3.148-2.432Q75.37.389 77.653.389q1.882 0 3.631.608a9.1 9.1 0 0 1 3.1 1.74 6.34 6.34 0 0 1 1.932 2.753l-3.282 1.2q-.284-.829-1.083-1.437-.8-.624-1.933-.98a7.8 7.8 0 0 0-2.365-.354 6.6 6.6 0 0 0-2.5.44q-1.149.438-1.882 1.215-.733.776-.733 1.808 0 1.266.683 1.925.683.66 1.833.98 1.166.304 2.599.558 2.298.37 4.248 1.233 1.965.861 3.148 2.297 1.2 1.418 1.2 3.497 0 2.095-1.2 3.682-1.183 1.57-3.148 2.45-1.95.86-4.248.86m12.446-.438V.777h14.477v3.514H93.564V10h8.863v3.514h-8.863v7.398h11.012v3.514zM116.719.743c7.663 0 12.294 4.088 12.294 11.115 0 7.94-5.964 12.331-12.961 12.331h-9.363v-.067c1.2-.102 2.1-1.115 2.1-2.365V3.142c0-1.216-.9-2.23-2.1-2.365V.743zm-.334 22.94c5.831 0 9.563-2.298 9.563-10.237 0-7.027-2.965-12.399-10.562-12.399h-3.899v21.52c1.2.642 2.866 1.115 4.898 1.115m23.895.203a8.57 8.57 0 0 0 7.63-4.696L146.744 25l-1.099-.81h-15.56v-.068c1.166-.102 2.099-1.115 2.099-2.331V3.14a2.394 2.394 0 0 0-2.099-2.364V.743h16.826l.999 5c-1.466-2.905-4.398-4.73-7.63-4.73h-5.397v11.318h5.431c1.599 0 3.032-1.013 3.631-2.5h.067v5.27h-.067c-.599-1.52-2.032-2.5-3.631-2.5h-5.431v11.284zm27.376-2.939c1.066-.912 1.866-1.858 2.133-2.5l.199-.473c-.1.304-.133.676-.933 2.06-.366.676-.832 1.285-1.332 1.859-1.067 1.081-2.999 2.331-5.198 2.635-3.932.54-7.497-.71-9.763-3.007s-3.565-5.439-3.665-8.615c-.1-3.85 1.233-7.128 3.399-9.155 2.132-2.027 4.898-3.21 7.996-3.446 1.5-.101 2.966-.034 4.432.27 1.633.338 3.199 1.014 3.765 1.42.366.236.933.641 1.466 1.08l-2.266 2.095c-1.133-1.554-2.499-2.737-4.165-3.514-2.665-1.25-5.097-1.182-7.43.203-1.399.845-2.499 2.196-3.198 4.02-.7 1.858-.967 3.92-.8 6.217.233 3.108 1.299 5.608 3.232 7.5 1.932 1.925 4.265 2.871 6.964 2.905 2.165 0 4.098-.71 5.164-1.554M183.847 0c6.798 0 12.395 4.696 12.395 12.331 0 7.601-5.597 12.331-12.395 12.331s-12.394-4.73-12.394-12.33C171.453 4.695 177.05 0 183.847 0m1.333 24.122c4.965 0 8.23-4.054 8.23-9.933 0-6.892-4.565-13.648-10.895-13.648-4.965 0-8.23 4.054-8.23 9.864 0 6.926 4.565 13.717 10.895 13.717m17.159-9.392c3.466 3.648 8.33 5.912 13.728 5.912.3 0 .633 0 .933-.034l-3.465 3.21c-5.065-1.082-9.263-4.527-11.429-9.156h-.033v7.129c.033 1.216.933 2.23 2.132 2.33v.068h-6.93v-.067c1.166-.102 2.099-1.115 2.099-2.331V3.108c0-1.216-.933-2.196-2.099-2.331V.743h11.029C213.268.743 217 2.905 217 7.23c0 4.73-3.898 8.378-9.896 8.21a20 20 0 0 1-4.765-.71m4.232-13.649h-4.498V14.46c1.133.27 2.932.54 2.999.54h.166c.034 0 .1.034.134.034.533.034 1.066.067 1.566.101h.366c4.798 0 6.731-2.838 6.731-6.723 0-3.615-.933-7.33-7.464-7.33"/></svg>
